X: 158
T: Ave regina celorum
N: Derived from Rue2001-Ave_regina_celorum.krn
C: Pierre de la Rue
%%abc-version 2.0
%%abcx-abcm2ps-target-version 5.9.1 (29 Sep 2008)
%%abc-creator hum2abc beta
%%abcx-conversion-date 2019/02/17 08:01:16
%%abc-edited-by Jesse Rodin
%%abc-edited-by Chris Gage 12-06-2012
%%abcx-initial-encoding-date 2013/05/17/
%%humdrum-veritas 3684994651
%%humdrum-veritas-data 3155405032
%%linebreak <none>
%%barnumbers 0
L: 1/4
M: 2/1
Q: 1/2=120
%%staves [1 2 3 4]
V: 1 clef=treble
V: 2 clef=treble-8
V: 3 clef=treble-8
V: 4 clef=bass
K: F
[V:1] F8 | 
[V:2] z8 | 
[V:3] z8 | 
[V:4] z8 | 
[V:1] A4B4 | 
[V:2] z8 | 
[V:3] z8 | 
[V:4] z8 | 
[V:1] G2c4BA | 
[V:2] c8 | 
[V:3] z8 | 
[V:4] z8 | 
[V:1] G4A3G | 
[V:2] e4f4 | 
[V:3] z8 | 
[V:4] z8 | 
[V:1] A2B3AGF | 
[V:2] d8 | 
[V:3] z8 | 
[V:4] z8 | 
[V:1] E8 | 
[V:2] c8- | 
[V:3] z8 | 
[V:4] C,8 | 
[V:1] z2G2A2c2 | 
[V:2] c8 | 
[V:3] z8 | 
[V:4] E,4F,4 | 
[V:1] B2A2B2A2- | 
[V:2] d8- | 
[V:3] F8 | 
[V:4] D,8- | 
[V:1] AGFED2G2- | 
[V:2] d4d4 | 
[V:3] A4B4 | 
[V:4] D,4B,,4 | 
[V:1] GFEDE4 | 
[V:2] c8- | 
[V:3] G8 | 
[V:4] C,8 | 
[V:1] F8 | 
[V:2] c8 | 
[V:3] F8 | 
[V:4] z8 | 
[V:1] z2G2A2G2- | 
[V:2] z8 | 
[V:3] c8 | 
[V:4] C,8 | 
[V:1] G2E2F4 | 
[V:2] z8 | 
[V:3] c4d4 | 
[V:4] C,4B,,4 | 
[V:1] E2c2d2c2 | 
[V:2] z2e2f2a2- | 
[V:3] c4z2c2 | 
[V:4] C,4F,4- | 
[V:1] A4z4 | 
[V:2] agf4ed | 
[V:3] d2c4A2 | 
[V:4] F,2F,2F,4 | 
[V:1] z4z2c2- | 
[V:2] e4f2ed | 
[V:3] B4A4 | 
[V:4] G,4F,4 | 
[V:1] c2A2B2A2- | 
[V:2] c2f2e2f2 | 
[V:3] z8 | 
[V:4] z2F,2G,2F,2- | 
[V:1] A2F2G4 | 
[V:2] d4G4 | 
[V:3] z4z2c2 | 
[V:4] F,2D,2E,4 | 
[V:1] F2FGABc2- | 
[V:2] z8 | 
[V:3] d6c2 | 
[V:4] D,6E,2 | 
[V:1] cBA4G2 | 
[V:2] z2d4d2 | 
[V:3] A4B4 | 
[V:4] F,4G,4 | 
[V:1] A8 | 
[V:2] f6f2 | 
[V:3] A4z2c2 | 
[V:4] F,2F,2D,2F,2- | 
[V:1] z8 | 
[V:2] f4f4 | 
[V:3] d2c3=B=B2 | 
[V:4] F,E,D,C,D,4 | 
[V:1] G8 | 
[V:2] e8 | 
[V:3] c8- | 
[V:4] C,8- | 
[V:1] G4G4 | 
[V:2] z2e2e2e2 | 
[V:3] c8 | 
[V:4] C,8 | 
[V:1] E3FG2A2- | 
[V:2] c3de2f2- | 
[V:3] z8 | 
[V:4] z8 | 
[V:1] AGFEF4 | 
[V:2] fedc=B3A | 
[V:3] z8 | 
[V:4] z4D,4 | 
[V:1] E4z4 | 
[V:2] c4z4 | 
[V:3] c3B/c/d2cB | 
[V:4] C,4F,2F,2- | 
[V:1] z4z2F2- | 
[V:2] z4F4 | 
[V:3] AGc4=B2 | 
[V:4] F,E,D,C,D,4 | 
[V:1] F2EDE4 | 
[V:2] G8 | 
[V:3] c8 | 
[V:4] C,8 | 
[V:1] D4z2F2- | 
[V:2] F2f4ed | 
[V:3] z4F4 | 
[V:4] z2D,4C,B,, | 
[V:1] F2D2F4- | 
[V:2] d4d4 | 
[V:3] B4B4 | 
[V:4] B,,4B,,4 | 
[V:1] F2EDD2B2- | 
[V:2] d4f4- | 
[V:3] B8- | 
[V:4] B,,8 | 
[V:1] B2AGB2G2 | 
[V:2] f2edf2d2 | 
[V:3] B8 | 
[V:4] B,,8 | 
[V:1] G3ABGB2- | 
[V:2] e2d4g2- | 
[V:3] z4G4- | 
[V:4] z2B,4G,2- | 
[V:1] B2G2A2c2- | 
[V:2] gfdef4- | 
[V:3] G4c3B | 
[V:4] G,A,B,2F,2A,2- | 
[V:1] c2A2B2G2- | 
[V:2] f4d2e2- | 
[V:3] A4G4 | 
[V:4] A,2F,2G,2E,2 | 
[V:1] G2A4F2 | 
[V:2] e2c2d3c | 
[V:3] c4A2B2 | 
[V:4] C,2F,4D,2 | 
[V:1] G3FEDF2- | 
[V:2] BAc4A2 | 
[V:3] G4A4 | 
[V:4] E,4C,2D,2 | 
[V:1] FED2E2C2 | 
[V:2] d4c2c2- | 
[V:3] B4G2A2- | 
[V:4] B,,4C,4 | 
[V:1] F2F3EE2 | 
[V:2] cBB2c4 | 
[V:3] A2F2G4 | 
[V:4] D,4C,4 | 
[V:1] F8 | 
[V:2] A3Bc2d2 | 
[V:3] F3GA2B2 | 
[V:4] z4F,4- | 
[V:1] z8 | 
[V:2] A2f4g2- | 
[V:3] c2d4cB | 
[V:4] F,4D,2_E,2- | 
[V:1] z8 | 
[V:2] gf_ed_e4 | 
[V:3] c2B4A2 | 
[V:4] E,D,C,B,,C,4 | 
[V:1] z4B4 | 
[V:2] d4z2d2 | 
[V:3] B8 | 
[V:4] B,,8 | 
[V:1] B4G2A2- | 
[V:2] g4e2f2- | 
[V:3] z8 | 
[V:4] z8 | 
[V:1] AGFEF2D2 | 
[V:2] fedcB3G | 
[V:3] z4d4 | 
[V:4] z4B,,4 | 
[V:1] E4z4 | 
[V:2] G4z4 | 
[V:3] c4A2B2- | 
[V:4] C,3D,E,F,G,2- | 
[V:1] z2C2G2G2 | 
[V:2] z4B4 | 
[V:3] BAGFG4 | 
[V:4] G,2F,4E,2 | 
[V:1] A3Bc2d2- | 
[V:2] A2d2c2f2- | 
[V:3] F4z4 | 
[V:4] F,4z4 | 
[V:1] d2c3=B=B2 | 
[V:2] fedcd4 | 
[V:3] z8 | 
[V:4] z2C,2G,2G,2 | 
[V:1] c4z4 | 
[V:2] c4z4 | 
[V:3] z4z2c2 | 
[V:4] A,2F,2G,2E,2 | 
[V:1] z8 | 
[V:2] z8 | 
[V:3] d2B2c2A2 | 
[V:4] F,2G,2C,2D,2- | 
[V:1] z8 | 
[V:2] z4z2c2 | 
[V:3] B2c2F2A2 | 
[V:4] D,2C,2A,,2C,2 | 
[V:1] z8 | 
[V:2] d2B2c2A2 | 
[V:3] G4F2F2- | 
[V:4] B,,2G,,2A,,2F,,2 | 
[V:1] z2G2A2F2 | 
[V:2] B4A2c2- | 
[V:3] FEE2F4 | 
[V:4] G,,4F,,4 | 
[V:1] G2E2F2G2 | 
[V:2] cBc2d2e2- | 
[V:3] z8 | 
[V:4] z8 | 
[V:1] C2E2D4 | 
[V:2] edc4=B2 | 
[V:3] z8 | 
[V:4] z8 | 
[V:1] C4z4 | 
[V:2] c4z2c2 | 
[V:3] z2C2D2E2 | 
[V:4] z2A,,2B,,2C,2 | 
[V:1] z8 | 
[V:2] c4d2e2 | 
[V:3] F3GABc2- | 
[V:4] F,,2F,3E,D,C, | 
[V:1] z4z2E2 | 
[V:2] f4e2c2 | 
[V:3] c2=B2c4 | 
[V:4] D,4C,4 | 
[V:1] F2G2C2F2- | 
[V:2] d2e2A2d2- | 
[V:3] z8 | 
[V:4] z8 | 
[V:1] FEDCDCG2- | 
[V:2] dcBABAc2- | 
[V:3] z8 | 
[V:4] z8 | 
[V:1] G2F3EE2 | 
[V:2] cBA2G4 | 
[V:3] z8 | 
[V:4] z8 | 
[V:1] F4z4 | 
[V:2] F8 | 
[V:3] z8 | 
[V:4] z8 | 
[V:1] A8 | 
[V:2] f8 | 
[V:3] c8 | 
[V:4] F,8 | 
[V:1] A4A4 | 
[V:2] f4f4 | 
[V:3] c4c4 | 
[V:4] F,4F,4 | 
[V:1] G4A4 | 
[V:2] e3dcBA2 | 
[V:3] c8- | 
[V:4] C,4z2F,2 | 
[V:1] G2A4GF | 
[V:2] z2A3Bc2- | 
[V:3] c8 | 
[V:4] E,2F,4E,D, | 
[V:1] G2A2F4 | 
[V:2] c2A4GF | 
[V:3] z2F2A2B2 | 
[V:4] E,2F,2D,4 | 
[V:1] E8- | 
[V:2] G2A2E4 | 
[V:3] c4A4 | 
[V:4] C,4z4 | 
[V:1] E8 | 
[V:2] z2c3de2- | 
[V:3] G2A4GF | 
[V:4] C,8- | 
[V:1] z8 | 
[V:2] edc4=B2 | 
[V:3] G2A2F4 | 
[V:4] C,4D,4 | 
[V:1] z4c4 | 
[V:2] c4cdef | 
[V:3] E8 | 
[V:4] C,8 | 
[V:1] B4A4 | 
[V:2] g2e2f4 | 
[V:3] z8 | 
[V:4] z4F,4 | 
[V:1] G8 | 
[V:2] e8 | 
[V:3] z4c4 | 
[V:4] C,4C,D,E,F, | 
[V:1] z8 | 
[V:2] z4f4 | 
[V:3] B4A4 | 
[V:4] G,2E,2F,4 | 
[V:1] z4c4 | 
[V:2] e2c3def | 
[V:3] G8 | 
[V:4] C,8 | 
[V:1] B4A4 | 
[V:2] g2e2f4 | 
[V:3] z4c4- | 
[V:4] z4F,,4 | 
[V:1] G2A4GF | 
[V:2] e2f4ed | 
[V:3] c2c2c4 | 
[V:4] C,2F,,3G,,A,,B,, | 
[V:1] E2FGA2G2- | 
[V:2] c8 | 
[V:3] c2c2c2BA | 
[V:4] C,8 | 
[V:1] G2F4E2 | 
[V:2] z4z2c2 | 
[V:3] BAGFG4 | 
[V:4] D,4z2C,2 | 
[V:1] F4z2A2- | 
[V:2] A2d4c2- | 
[V:3] F8 | 
[V:4] D,2B,,C,D,E,F,2- | 
[V:1] ABcAB2G2 | 
[V:2] c2f3ee2 | 
[V:3] z8 | 
[V:4] F,G,A,F,G,4 | 
[V:1] A2c3BA2 | 
[V:2] f4z2f2 | 
[V:3] z2A3BcA | 
[V:4] F,4F,4 | 
[V:1] G2c3BA2- | 
[V:2] d2e2c2f2 | 
[V:3] B2G2A2c2- | 
[V:4] G,2E,2F,4 | 
[V:1] A2GFE3F | 
[V:2] e3dc2B2 | 
[V:3] cBA2G4 | 
[V:4] C,8 | 
[V:1] F8 |]  
[V:2] A8 |]  
[V:3] F8 |]  
[V:4] F,,8 |]  



